draw thelabel.lft(btex \\color{blue}F\\color{black}: make production \hskip3mm 25 \hskip3mm $\triangleright$ etex scaled scalefactor,origin) rotated 276.923076923077 shifted (5cm*dir 96.9230769230769);

draw thelabel.lft(btex OFS: substitute retired consumers \hskip3mm 24 \hskip3mm $\triangleright$ etex scaled scalefactor,origin) rotated 290.769230769231 shifted (5cm*dir 110.769230769231);

draw thelabel.lft(btex LM: match vacancies and unemployed \hskip3mm 23 \hskip3mm $\triangleright$ etex scaled scalefactor,origin) rotated 304.615384615385 shifted (5cm*dir 124.615384615385);

draw thelabel.lft(btex \\color{blue}F\\color{black}: hire \hskip3mm 22 \hskip3mm $\triangleright$ etex scaled scalefactor,origin) rotated 318.461538461538 shifted (5cm*dir 138.461538461538);

draw thelabel.lft(btex C$_U$: send curricula \hskip3mm 21 \hskip3mm $\triangleright$ etex scaled scalefactor,origin) rotated 332.307692307692 shifted (5cm*dir 152.307692307692);

draw thelabel.lft(btex \\color{blue}F\\color{black}: retire and fire workers \hskip3mm 20 \hskip3mm $\triangleright$ etex scaled scalefactor,origin) rotated 346.153846153846 shifted (5cm*dir 166.153846153846);

draw thelabel.lft(btex OFS: perform firm entry, compute and allocate investments \hskip3mm 19 \hskip3mm $\triangleright$ etex scaled scalefactor,origin) rotated 360 shifted (5cm*dir 180);

draw thelabel.lft(btex \\color{blue}F\\color{black}: set production capital according to allowed credit \hskip3mm 18 \hskip3mm $\triangleright$ etex scaled scalefactor,origin) rotated 373.846153846154 shifted (5cm*dir 193.846153846154);

draw thelabel.lft(btex B$\\rightarrow$\\color{blue}F\\color{black}: set allowed credit \hskip3mm 17 \hskip3mm $\triangleright$ etex scaled scalefactor,origin) rotated 387.692307692308 shifted (5cm*dir 207.692307692308);

draw thelabel.lft(btex \\color{blue}F\\color{black}$\\rightarrow$B: set desired investments (ask for credit if needed) \hskip3mm 16 \hskip3mm $\triangleright$ etex scaled scalefactor,origin) rotated 401.538461538462 shifted (5cm*dir 221.538461538462);

draw thelabel.lft(btex \\color{blue}F\\color{black}$\\rightarrow$B: pay back if possible \hskip3mm 15 \hskip3mm $\triangleright$ etex scaled scalefactor,origin) rotated 415.384615384615 shifted (5cm*dir 235.384615384615);

draw thelabel.lft(btex B$\\rightarrow$\\color{blue}F\\color{black}: pay interest and ask refunding \hskip3mm 14 \hskip3mm $\triangleright$ etex scaled scalefactor,origin) rotated 429.230769230769 shifted (5cm*dir 249.230769230769);

draw thelabel.lft(btex OFS: perform firms exit \hskip3mm 13 \hskip3mm $\triangleright$ etex scaled scalefactor,origin) rotated 443.076923076923 shifted (5cm*dir 263.076923076923);

draw thelabel.rt(btex $\triangleleft$ \hskip3mm 12 \hskip3mm \\color{blue}F\\color{black}: compute economic result and capital depreciation etex scaled scalefactor,origin) rotated 276.923076923077 shifted (5cm*dir 276.923076923077);

draw thelabel.rt(btex $\triangleleft$ \hskip3mm 11 \hskip3mm \\color{red}C\\color{black}$\\rightarrow$B: compute saving and deposit them etex scaled scalefactor,origin) rotated 290.769230769231 shifted (5cm*dir 290.769230769231);

draw thelabel.rt(btex $\triangleleft$ \hskip3mm 10 \hskip3mm \\color{red}C\\color{black}: resize consumption if unsatisfied demand persists etex scaled scalefactor,origin) rotated 304.615384615385 shifted (5cm*dir 304.615384615385);

draw thelabel.rt(btex $\triangleleft$ \hskip3mm 9 \hskip3mm OFS: satisfy unsatified demand if possible etex scaled scalefactor,origin) rotated 318.461538461538 shifted (5cm*dir 318.461538461538);

draw thelabel.rt(btex $\triangleleft$ \hskip3mm 8 \hskip3mm OFS: compute and allocate desired demand etex scaled scalefactor,origin) rotated 332.307692307692 shifted (5cm*dir 332.307692307692);

draw thelabel.rt(btex $\triangleleft$ \hskip3mm 7 \hskip3mm \\color{red}C\\color{black}: resize consumption if demanded credit is not allowed etex scaled scalefactor,origin) rotated 346.153846153846 shifted (5cm*dir 346.153846153846);

draw thelabel.rt(btex $\triangleleft$ \hskip3mm 6 \hskip3mm B$\\rightarrow$\\color{red}C\\color{black}: set allowed credit etex scaled scalefactor,origin) rotated 0 shifted (5cm*dir 0);

draw thelabel.rt(btex $\triangleleft$ \hskip3mm 5 \hskip3mm \\color{red}C\\color{black}$\\rightarrow$B: set desired consumption (ask for credit if needed) etex scaled scalefactor,origin) rotated 13.8461538461539 shifted (5cm*dir 13.8461538461539);

draw thelabel.rt(btex $\triangleleft$ \hskip3mm 4 \hskip3mm \\color{red}C\\color{black}$_S$: step state etex scaled scalefactor,origin) rotated 27.6923076923077 shifted (5cm*dir 27.6923076923077);

draw thelabel.rt(btex $\triangleleft$ \hskip3mm 3 \hskip3mm \\color{red}C\\color{black}$\\rightarrow$B: pay back if possible etex scaled scalefactor,origin) rotated 41.5384615384615 shifted (5cm*dir 41.5384615384615);

draw thelabel.rt(btex $\triangleleft$ \hskip3mm 2 \hskip3mm B$\\rightarrow$\\color{red}C\\color{black}: pay interest and ask refunding etex scaled scalefactor,origin) rotated 55.3846153846154 shifted (5cm*dir 55.3846153846154);

draw thelabel.rt(btex $\triangleleft$ \hskip3mm 1 \hskip3mm F$\\rightarrow$\\color{red}C\\color{black}: pay wages etex scaled scalefactor,origin) rotated 69.2307692307693 shifted (5cm*dir 69.2307692307693);

draw thelabel.rt(btex $\triangleleft$ \hskip3mm 0 \hskip3mm OFS: compute variables etex scaled scalefactor,origin) rotated 83.0769230769231 shifted (5cm*dir 83.0769230769231);

endfig;
end;
