prologues:=3;

verbatimtex
%&latex 
\documentclass[10pt]{article}
\usepackage{color}
\begin{document}
etex

beginfig(0);

label.urt(btex {\huge S}tock etex,(0,0)) withcolor (0,0,1);
label.urt(btex {\huge F} etex,(11mm,0)) withcolor (0,1,0);
label.urt(btex low etex,(15mm,0)) withcolor (0,1,0);
label.urt(btex {\huge C}onsistency etex,(0,-7mm)) withcolor (1,0,0);

endfig;
	   end;
